X:1
T:Isles of the South, 11.11.11.11.11
T:Isles of the South, 11.11.11.11.11
T:William Clarke Hauser, 1848
T:Public Domain Courtesy of the Cyber Hymnal™
C:William Clarke Hauser, 1848
Z:Public Domain
Z:Courtesy of the Cyber Hymnal™
%%score ( 1 2 ) ( 3 4 )
L:1/8
Q:1/4=100
M:2/4
K:Db
V:1 treble 
V:2 treble 
V:3 bass 
V:4 bass 
V:1
 [FA]2 | [FA]2 [Fd][Fd] | [Fd]2 [GB][FB] | [EA]2 [CE][CF] | [CE]2 [DA]2 | [DA]2 [Dd]F | %6
 [DG]2 [DB][DB] | [Fd]2 A[FA] | [FA]2 [DF]2 [DF]2 [EG][EF] | [FB]2 A[FA] | [GB]2 [Ee][Ee] | %11
 [Ee]2 [Fd]2 | [Bd]2 B[Bd] | [GB]2 BA | B2 E[DF] | [EA]2 [DF]2 | [DA]2 [DA][Fc] | [Ad]2 [FA][FA] | %18
 [DA]2 [FA][FA] | [FA]2 x2 |] x2 |] %21
V:2
 x2 | x4 | x4 | x4 | x4 | x3 F | x4 | x2 A x | x8 | x2 A x | x4 | x4 | x2 B x | x2 BA | (G<E) E x | %15
 x4 | x4 | x4 | x4 | x4 |] x2 |] %21
V:3
 [D,D]2 | [D,D]2 [D,B,][D,D] | (A,F,) E,E, | [A,,E,]2 [A,,E,][A,,F,] | [A,,E,]2 [D,F,]2 | %5
 [F,A,]2 F,[F,A,] | [D,D]2 [B,,F,][B,,F,] | [B,,F,]2 [A,,D,][A,,D,] | D,2 [F,A,]2 x4 | %9
 [F,A,]2 [E,B,][F,C] | [B,D]2 [F,D][D,F] | [E,E]2 [A,,A,][A,,A,] | [A,,A,]2 [D,F,]2 | %13
 [D,G,]2 [D,G,][D,E,] | (G,B,) [F,D][D,F,] | (G,<E,) [A,,E,][A,,F,] | [A,,E,]2 D,2 | %17
 [D,F,]2 [D,F,][F,A,] | [F,D]2 [D,F,A,][D,F,] | [D,F,]2 [A,,D,][A,,D,] |] D,2 |] %21
V:4
 x2 | x4 | D,2 E,E, | x4 | x4 | x2 F, x | x4 | x4 | D,2 x6 | x4 | x4 | x4 | x4 | x4 | E,2 x2 | %15
 E,2 x2 | x2 D,2 | x4 | x4 | x4 |] D,2 |] %21

